X: 13256
T: Fitzmaurice's
R: polka
M: 2/4
K: Gmajor
D|:GG F/G/A/F/|Gg e/f/g/e/|d/e/d/B/ G/A/B/G/|A/B/A/F/ D/E/ (3F/E/D/|
G G/G/ F/G/A/F/|Gg e/f/g/e/|d/e/d/B/ G/A/B/G/|1 A/F/D/F/ G/D/D/D/:|2 A/F/D/F/ G>G||
K:D
AF/G/ A/B/c/d/|dc c2 z|G/G/G/G/ B/B/B/B/|FF/F/ F>A|
AF/G/ A/B/c/d/|BG/A/ B/G/B/d/|g/f/g/e/ c/A/B/c/|d/B/A/F/ D>z:|
D|:GG F/G/A/F/|Gg e/f/g/e/|d/e/d/B/ G/A/B/G/|A/B/A/F/ D/E/ (3F/E/D/|
G G/G/ F/G/A/F/|Gg e/f/g/e/|d/e/d/B/ G/A/B/G/|1 A/F/D/F/ G/D/D/D/:|2 A/F/D/F/ G>G||
f2 f/e/d/B/|AA A>A|BB B/c/d/B/|Ad fd|c3 B/c/|d3 c|B2- B/c/d/B/|
ec BA|ff f/e/d/B/|AA A>A|BB B/c/d/e/|f2 ff|
gg gf/e/|aa af/d/|B z c z|1 dA BA:|2 dD/D/ ED||

